src/shared/assets/icons/eye.svg

<svg width="24" height="24" viewBox="0 0 24 24" fill="none" xmlns="http://www.w3.org/2000/svg">
<g clip-path="url(#clip0_105_1139)">
<path fill-rule="evenodd" clip-rule="evenodd" d="M12 7.5C9.51472 7.5 7.5 9.51472 7.5 12C7.5 14.4853 9.51472 16.5 12 16.5C14.4853 16.5 16.5 14.4853 16.5 12C16.5 9.51472 14.4853 7.5 12 7.5ZM9.5 12C9.5 10.6193 10.6193 9.5 12 9.5C13.3807 9.5 14.5 10.6193 14.5 12C14.5 13.3807 13.3807 14.5 12 14.5C10.6193 14.5 9.5 13.3807 9.5 12Z" fill="#A9A8AC"/>
<path fill-rule="evenodd" clip-rule="evenodd" d="M12 2.5C7.80929 2.5 4.80639 4.84327 2.90291 7.0685C1.94666 8.18638 1.24437 9.29981 0.780976 10.1325C0.548666 10.55 0.374765 10.8998 0.257664 11.1484C0.199077 11.2727 0.154596 11.372 0.124031 11.4419C0.108745 11.4769 0.0969291 11.5046 0.0885598 11.5245L0.0785838 11.5483L0.0755265 11.5557L0.0744793 11.5583L0.0740759 11.5593L-0.0740967 11.9233L0.0646933 12.291L0.0650804 12.292L0.0660813 12.2947L0.0689924 12.3023L0.0784664 12.3266C0.0864105 12.3469 0.0976229 12.3751 0.112146 12.4107C0.141186 12.482 0.183503 12.583 0.239442 12.7095C0.351245 12.9623 0.517901 13.318 0.742247 13.7424C1.18972 14.5889 1.87318 15.7209 2.81783 16.8577C4.70146 19.1243 7.70693 21.5 12 21.5C16.293 21.5 19.2985 19.1243 21.1821 16.8577C22.1267 15.7209 22.8102 14.5889 23.2577 13.7424C23.482 13.318 23.6487 12.9623 23.7605 12.7095C23.8164 12.583 23.8587 12.482 23.8878 12.4107C23.9023 12.3751 23.9135 12.3469 23.9215 12.3266L23.9309 12.3023L23.9338 12.2947L23.9348 12.292L23.9352 12.291L24.074 11.9233L23.9258 11.5593L23.9244 11.5557L23.9213 11.5483L23.9114 11.5245C23.903 11.5046 23.8912 11.4769 23.8759 11.4419C23.8453 11.372 23.8008 11.2727 23.7423 11.1484C23.6252 10.8998 23.4513 10.55 23.2189 10.1325C22.7556 9.29981 22.0533 8.18638 21.097 7.0685C19.1935 4.84327 16.1906 2.5 12 2.5ZM23 11.9371C23.9355 12.2902 23.9352 12.291 23.9352 12.291L23 11.9371ZM23.9258 11.5593C23.9258 11.5593 23.9262 11.5601 23 11.9371L23.9258 11.5593ZM0.999962 11.9371C0.0737527 11.5601 0.0740759 11.5593 0.0740759 11.5593L0.999962 11.9371ZM0.0646933 12.291C0.0646933 12.291 0.0643818 12.2902 0.999962 11.9371L0.0646933 12.291ZM2.5104 12.8077C2.32531 12.4576 2.18603 12.1632 2.09077 11.9504C2.1909 11.7404 2.33654 11.4501 2.52859 11.105C2.94555 10.3558 3.57468 9.35995 4.42272 8.36857C6.12781 6.37527 8.62491 4.5 12 4.5C15.375 4.5 17.8721 6.37527 19.5772 8.36857C20.4252 9.35995 21.0544 10.3558 21.4713 11.105C21.6634 11.4501 21.809 11.7404 21.9092 11.9504C21.8139 12.1632 21.6746 12.4576 21.4895 12.8077C21.0883 13.5667 20.4782 14.5754 19.6439 15.5794C17.9696 17.5942 15.475 19.5 12 19.5C8.52489 19.5 6.03035 17.5942 4.35602 15.5794C3.52168 14.5754 2.91166 13.5667 2.5104 12.8077Z" fill="#A9A8AC"/>
</g>
<defs>
<clipPath id="clip0_105_1139">
<rect width="24" height="24" fill="white"/>
</clipPath>
</defs>
</svg>

<svg width="24" height="24" fill="none" xmlns="http://www.w3.org/2000/svg">
    <g fill="currentColor">
        <path d="M12 7.5a4.5 4.5 0 1 0 0 9 4.5 4.5 0 0 0 0-9ZM9.5 12a2.5 2.5 0 1 1 5 0 2.5 2.5 0 0 1-5 0Z"/>
        <path d="M12 2.5c-4.19 0-7.194 2.343-9.097 4.569a18.911 18.911 0 0 0-2.645 4.08 11.473 11.473 0 0 0-.17.376l-.01.023-.002.008-.002.002v.001l-.148.364.139.368v.001l.001.003.003.007.01.025.033.084.127.299a18.328 18.328 0 0 0 2.578 4.148C4.702 19.124 7.708 21.5 12 21.5s7.299-2.376 9.182-4.642a18.333 18.333 0 0 0 2.579-4.149 11.41 11.41 0 0 0 .16-.382l.01-.025.003-.007v-.003l.001-.001.139-.368-.148-.364-.002-.003-.003-.008-.01-.024a11.895 11.895 0 0 0-.17-.376 18.901 18.901 0 0 0-2.645-4.08C19.195 4.844 16.192 2.5 12.001 2.5Zm11 9.437c.936.353.935.354.935.354L23 11.937Zm.926-.378-.926.378.926-.378ZM1 11.937l-.926-.378.926.378Zm-.935.354L1 11.937l-.935.354Zm2.445.517c-.185-.35-.324-.645-.42-.858a16.914 16.914 0 0 1 2.332-3.582C6.129 6.376 8.626 4.5 12 4.5s5.872 1.875 7.577 3.869a16.912 16.912 0 0 1 2.332 3.581 16.328 16.328 0 0 1-2.265 3.629C17.97 17.594 15.475 19.5 12 19.5c-3.475 0-5.97-1.906-7.644-3.92a16.33 16.33 0 0 1-1.846-2.772Z"/>
    </g>
</svg>
